X:9269
T:Laride
B:Enciclopedia Blowzabellica, publisher Dragonfly Music, Newbiggin by the Sea
Z:abc transcription Simon Wascher
N:please mail errors to simon.wascher@chello.at
M:2/4
L:1/8
K:Dm
D2 A2|GB A2|G3/A/ GE|FG A2|
D2 A2|GB A2|G3/A/ GE|FE D2:|
|:D2 F2|FD E2|EG GE|FG A2|
D2 F2|FD E2|E3/F/ GA|FE D2:|


